X:14
%%NRChange 2019-05-24
T:Eklundapolska n. 3 (Slang Polska)
A:Uppland
C:e Viksta-Lasse
O:Sweden
R:Polska
Z:As played by Northern Roots Session
L:1/8
M:3/4
Q:100
K:G
P:A
"G"g>g .bg dB | "C"cB/c/ e/g/e/c/ Ac | "G"BA/B/ c/d/c/A/ BG | "D"Ad d4 |
"G"g>g .bg dB | "C"cB/c/ e/g/e/c/ Ac | "G"BA/B/ c/d/"C"c/A/ B/c/B/G/ | \
[1 "D"A/B/A/F/ "G"G2 d2 :| [2 "D"A/B/A/F/ "G"G3 "D"A ||
P:B
|: "G"B>B .cc BG | "D"Ad d4 | "G"B>B .cc BG | "D"A/B/A/F/ D3 c |
"Em"B>B .cc BG | "D"Ad d4 | "C"GA/B/ c/d/c/A/ B/c/B/G/ | \
[1 "D"A/B/A/F/ G3 A :| [2 "D"A/B/A/F/ "G"G4 ||

